static/icons/dev-ops.svg

<svg width="101" height="100" viewBox="0 0 101 100" fill="none" xmlns="http://www.w3.org/2000/svg">
<path d="M49.7611 99.3429C76.9134 99.3429 98.9247 77.3316 98.9247 50.1792C98.9247 23.0269 76.9134 1.01553 49.7611 1.01553C22.6087 1.01553 0.597382 23.0269 0.597382 50.1792C0.597382 77.3316 22.6087 99.3429 49.7611 99.3429Z" fill="#EBECE9"/>
<path d="M49.761 1.01553C34.6475 1.01553 20.3704 8.00478 11.0514 19.9522C30.5257 1.07527 61.6487 1.61291 80.4659 21.0872C97.491 38.7097 98.9845 66.1888 83.871 85.4839C103.405 66.6667 104.002 35.5436 85.1852 16.0096C75.9259 6.45161 63.1422 1.01553 49.761 1.01553Z" fill="#C1C1C1"/>
<path d="M37.5205 33.0616C38.9246 31.8607 39.1763 29.8505 38.0826 28.5717C36.9889 27.293 34.9641 27.2299 33.5599 28.4308C32.1558 29.6317 31.9041 31.6418 32.9978 32.9206C34.0915 34.1994 36.1164 34.2625 37.5205 33.0616Z" fill="#EEEFEE"/>
<path d="M32.9749 90.0836C32.7957 90.0836 32.6762 90.0239 32.497 89.9642C30.8244 89.2473 29.2115 88.411 27.6583 87.4552C27.1207 87.0968 27.0012 86.4397 27.2999 85.902C27.5986 85.3644 28.3154 85.2449 28.7933 85.5436C30.2868 86.4397 31.7802 87.2163 33.3931 87.9331C33.9905 88.1721 34.2294 88.8292 33.9905 89.4265C33.871 89.8447 33.4528 90.0836 32.9749 90.0836Z" fill="white"/>
<path d="M24.4922 85.0657C24.2533 85.0657 24.0143 85.006 23.7754 84.8268C17.6822 80.1673 12.9032 73.9546 9.9761 66.8459C9.73715 66.2485 10.0358 65.5914 10.6332 65.3524C11.2306 65.1135 11.8877 65.4122 12.1266 66.0096C14.8745 72.7599 19.3548 78.6141 25.1493 83.0346C25.6272 83.3931 25.7467 84.1099 25.3883 84.6475C25.1493 84.8865 24.8507 85.0657 24.4922 85.0657Z" fill="white"/>
<path d="M69.6535 55.3763C70.1314 53.644 70.3704 51.8519 70.3704 50C70.3704 48.1481 70.1314 46.356 69.5938 44.5639L75.6272 39.6057L71.7443 32.8554L64.4564 35.6033C61.8877 32.9749 58.6619 31.1231 55.0777 30.227L53.8232 22.5209H45.9976L44.7431 30.227C41.2186 31.1828 37.9331 33.0346 35.3644 35.6631L28.0765 32.9152L24.1935 39.6655L30.227 44.5639C29.7491 46.2963 29.5102 48.1481 29.5102 49.9403C29.5102 51.7921 29.7491 53.5842 30.2867 55.3763L24.2533 60.3345L28.1362 67.0848L35.4241 64.3369C37.9928 66.9056 41.2784 68.8172 44.8029 69.7133L46.0573 77.4194H53.8829L55.1374 69.7133C58.6619 68.7575 61.9474 66.9056 64.5161 64.2772L71.8041 67.0251L75.687 60.2748L69.6535 55.3763ZM50 60.7527C44.086 60.7527 39.307 55.9737 39.307 50.0597C39.307 44.1458 44.086 39.3668 50 39.3668C55.914 39.3668 60.6929 44.1458 60.6929 50.0597C60.6929 55.9737 55.8542 60.7527 50 60.7527Z" fill="#9FEFDE"/>
<path d="M46.1171 78.3154C45.6989 78.3154 45.4002 78.0167 45.3405 77.6583L44.1457 70.4898C40.8005 69.534 37.7539 67.8017 35.3046 65.4122L28.4946 67.9809C28.1362 68.1003 27.718 67.9809 27.5388 67.6224L23.6559 60.8721C23.4767 60.5137 23.5364 60.0956 23.8351 59.8566L29.4504 55.2569C28.6141 51.9116 28.5543 48.3871 29.4504 45.0418L23.8351 40.442C23.5364 40.2031 23.4767 39.7849 23.6559 39.4265L27.5388 32.6762C27.718 32.3178 28.1362 32.1983 28.4946 32.3178L35.3046 34.8865C37.8136 32.497 40.8005 30.7049 44.1457 29.7491L45.3405 22.5806C45.4002 22.2222 45.7586 21.9235 46.1171 21.9235H53.9426C54.3608 21.9235 54.6595 22.2222 54.7192 22.5806L55.914 29.7491C59.2592 30.7049 62.3058 32.4373 64.7551 34.8267L71.5651 32.2581C71.9235 32.1386 72.3417 32.258 72.5209 32.6165L76.4038 39.3668C76.583 39.7252 76.5233 40.1434 76.2246 40.3823L70.6093 45.0418C71.0275 46.7144 71.2664 48.4468 71.2664 50.1792C71.2664 51.9116 71.0275 53.5842 70.6093 55.2569L76.2246 59.8566C76.5233 60.0956 76.583 60.5137 76.4038 60.8721L72.5209 67.6224C72.3417 67.9809 71.9235 68.1003 71.5651 67.9809L64.7551 65.4122C62.2461 67.8017 59.1995 69.5938 55.914 70.5496L54.7192 77.718C54.6595 78.0765 54.3011 78.3751 53.9426 78.3751L46.1171 78.3154ZM35.4838 63.6201C35.7228 63.6201 35.902 63.6798 36.0812 63.859C38.5902 66.368 41.6965 68.1601 45.1015 68.9964C45.4002 69.0561 45.6392 69.3548 45.6989 69.6535L46.8339 76.7025H53.2855L54.4205 69.6535C54.4803 69.3548 54.7192 69.1159 55.0179 68.9964C58.4229 68.1003 61.5292 66.3082 63.9785 63.7993C64.2174 63.5603 64.5161 63.5006 64.8148 63.6201L71.4456 66.129L74.6714 60.5137L69.1756 56.0334C68.9367 55.8542 68.8172 55.4958 68.8769 55.1971C69.3548 53.5245 69.5938 51.7921 69.5938 50.0597C69.5938 48.2676 69.3548 46.5352 68.8769 44.8029C68.8172 44.5042 68.8769 44.1457 69.1159 43.9665L74.6117 39.4265L71.3859 33.871L64.7551 36.3799C64.4564 36.4994 64.0979 36.4397 63.9187 36.2007C61.4098 33.6917 58.3034 31.8996 54.8984 31.0633C54.5997 31.0036 54.3608 30.7049 54.3011 30.4062L53.166 23.3572H46.7144L45.5794 30.4062C45.5197 30.7049 45.2807 30.9438 44.9821 31.0633C41.577 31.9594 38.4707 33.7515 36.0215 36.2604C35.7825 36.4994 35.4838 36.5591 35.1852 36.4397L28.5543 33.9307L25.3285 39.4862L30.8243 43.9665C31.0633 44.1457 31.1828 44.5042 31.0633 44.8029C30.5854 46.4755 30.3465 48.2079 30.3465 49.9402C30.3465 51.7324 30.5854 53.4647 31.0633 55.1374C31.123 55.4361 31.0633 55.7945 30.8243 55.9737L25.3285 60.5137L28.5543 66.0693L35.1852 63.5603C35.2449 63.6201 35.3644 63.6201 35.4838 63.6201ZM49.9402 61.5293C43.6081 61.5293 38.411 56.3919 38.411 50C38.411 43.6678 43.5484 38.4707 49.9402 38.4707C56.2724 38.4707 61.4695 43.6081 61.4695 50C61.4695 56.3919 56.3321 61.5293 49.9402 61.5293ZM49.9402 40.1434C44.4444 40.1434 40.0239 44.5639 40.0239 50.0597C40.0239 55.5555 44.4444 59.9761 49.9402 59.9761C55.3763 59.9761 59.8566 55.5555 59.8566 50.0597C59.8566 44.5639 55.4361 40.1434 49.9402 40.1434Z" fill="#244583"/>
<path d="M50 0C38.5902 0 27.4791 3.88291 18.638 10.9916L18.5185 11.1111L19.4743 12.2461L19.5938 12.1266C28.2557 5.19713 38.7694 1.49343 50 1.49343C76.7623 1.49343 98.5663 23.2975 98.5663 50.0597C98.5663 56.6308 97.3118 62.963 94.7431 68.9367L94.6834 69.0561L96.0574 69.6535L96.1171 69.534C98.7455 63.3811 100.06 56.81 100.06 50.0597C100 22.4612 77.5388 0 50 0Z" fill="#244583"/>
<path d="M19.6535 11.2306L20.6093 5.55557L20.6691 5.43609L19.1756 5.19714L17.9211 12.5448L25.3883 13.2617L25.5078 11.7682L19.6535 11.2306Z" fill="#244583"/>
<path d="M74.6117 86.7384L74.4922 88.2318L79.3309 88.6499C70.9677 94.9821 60.6332 98.4468 50.0597 98.4468C23.2975 98.4468 1.49343 76.6428 1.49343 49.8805C1.49343 43.3094 2.74791 36.9773 5.31661 31.0036L5.37634 30.8841L4.00239 30.2867L3.94265 30.466C1.31422 36.6189 0 43.19 0 49.9403C0 77.5388 22.4612 100 50.0597 100C60.9319 100 71.5054 96.4158 80.1673 89.9044L79.3907 94.4445V94.5639L80.8841 94.8029L82.0788 87.3955L74.6117 86.7384Z" fill="#244583"/>
</svg>

<svg xmlns="http://www.w3.org/2000/svg" width="101" height="100" fill="none" xmlns:v="https://vecta.io/nano"><path d="M49.761 99.343c27.152 0 49.164-22.011 49.164-49.164S76.913 1.016 49.761 1.016.597 23.027.597 50.179s22.011 49.164 49.164 49.164z" fill="#ebece9"/><path d="M49.761 1.016c-15.114 0-29.391 6.989-38.71 18.937C30.526 1.075 61.649 1.613 80.466 21.087c17.025 17.623 18.519 45.102 3.405 64.397 19.534-18.817 20.131-49.94 1.314-69.474A49.34 49.34 0 0 0 49.761 1.016z" fill="#c1c1c1"/><path d="M37.521 33.062c1.404-1.201 1.656-3.211.562-4.49s-3.118-1.342-4.523-.141-1.656 3.211-.562 4.49 3.119 1.342 4.523.141z" fill="#eeefee"/><path d="M32.975 90.084c-.179 0-.299-.06-.478-.119a37.13 37.13 0 0 1-4.839-2.509c-.538-.358-.657-1.016-.358-1.553s1.015-.657 1.493-.358a41.86 41.86 0 0 0 4.6 2.389c.597.239.836.896.597 1.493-.119.418-.538.657-1.016.657zm-8.483-5.018a1.15 1.15 0 0 1-.717-.239c-6.093-4.66-10.872-10.872-13.799-17.981-.239-.597.06-1.255.657-1.493s1.255.06 1.493.657a40.65 40.65 0 0 0 13.023 17.025c.478.359.597 1.075.239 1.613-.239.239-.538.418-.896.418z" fill="#fff"/><path d="M69.654 55.376c.478-1.732.717-3.524.717-5.376s-.239-3.644-.777-5.436l6.033-4.958-3.883-6.75-7.288 2.748c-2.569-2.628-5.794-4.48-9.379-5.376l-1.255-7.706h-7.826l-1.255 7.706c-3.524.956-6.81 2.808-9.379 5.436l-7.288-2.748-3.883 6.75 6.034 4.898c-.478 1.732-.717 3.584-.717 5.376 0 1.852.239 3.644.776 5.436l-6.033 4.958 3.883 6.75 7.288-2.748c2.569 2.569 5.854 4.48 9.379 5.376l1.254 7.706h7.826l1.255-7.706c3.525-.956 6.81-2.808 9.379-5.436l7.288 2.748 3.883-6.75-6.034-4.898zM50 60.753c-5.914 0-10.693-4.779-10.693-10.693S44.086 39.367 50 39.367s10.693 4.779 10.693 10.693S55.854 60.753 50 60.753z" fill="#9fefde"/><g fill="#244583"><path d="M46.117 78.315c-.418 0-.717-.299-.777-.657l-1.195-7.168c-3.345-.956-6.392-2.688-8.841-5.078l-6.81 2.569c-.358.119-.777 0-.956-.359l-3.883-6.75c-.179-.358-.119-.777.179-1.016l5.615-4.6c-.836-3.345-.896-6.87 0-10.215l-5.615-4.6c-.299-.239-.358-.657-.179-1.016l3.883-6.75c.179-.358.597-.478.956-.358l6.81 2.569c2.509-2.389 5.496-4.182 8.841-5.137l1.195-7.168a.83.83 0 0 1 .777-.657h7.825c.418 0 .717.299.777.657l1.195 7.168c3.345.956 6.392 2.688 8.841 5.078l6.81-2.569c.358-.12.777 0 .956.358l3.883 6.75c.179.358.12.777-.179 1.016l-5.615 4.66c.418 1.673.657 3.405.657 5.137s-.239 3.405-.657 5.078l5.615 4.6c.299.239.358.657.179 1.016l-3.883 6.75c-.179.359-.597.478-.956.359l-6.81-2.569c-2.509 2.389-5.556 4.182-8.841 5.137l-1.195 7.168a.83.83 0 0 1-.777.657l-7.825-.06zM35.484 63.62c.239 0 .418.06.597.239 2.509 2.509 5.615 4.301 9.02 5.137.299.06.538.358.597.657l1.135 7.049h6.452l1.135-7.049c.06-.299.299-.538.597-.657 3.405-.896 6.511-2.688 8.961-5.197.239-.239.538-.299.836-.179l6.631 2.509 3.226-5.615-5.496-4.48a.88.88 0 0 1-.299-.836 18.71 18.71 0 0 0 .717-5.137c0-1.792-.239-3.524-.717-5.257-.06-.299 0-.657.239-.836l5.496-4.54-3.226-5.555-6.631 2.509c-.299.12-.657.06-.836-.179-2.509-2.509-5.615-4.301-9.02-5.137-.299-.06-.538-.358-.597-.657l-1.135-7.049h-6.452l-1.135 7.049c-.06.299-.299.538-.597.657a19.43 19.43 0 0 0-8.961 5.197c-.239.239-.538.299-.836.179l-6.631-2.509-3.226 5.555 5.496 4.48a.74.74 0 0 1 .239.836 18.71 18.71 0 0 0-.717 5.137c0 1.792.239 3.525.717 5.197.06.299 0 .657-.239.836l-5.496 4.54 3.226 5.556 6.631-2.509c.06.06.179.06.299.06zm14.456-2.091A11.54 11.54 0 0 1 38.411 50 11.54 11.54 0 0 1 49.94 38.471 11.54 11.54 0 0 1 61.47 50a11.5 11.5 0 0 1-11.53 11.529zm0-21.386a9.89 9.89 0 0 0-9.916 9.916 9.89 9.89 0 0 0 9.916 9.916c5.436 0 9.916-4.421 9.916-9.916a9.89 9.89 0 0 0-9.916-9.916zM50 0C38.59 0 27.479 3.883 18.638 10.992l-.12.12.956 1.135.12-.12C28.256 5.197 38.769 1.493 50 1.493c26.762 0 48.566 21.804 48.566 48.566 0 6.571-1.254 12.903-3.823 18.877l-.06.119 1.374.597.06-.119c2.628-6.153 3.943-12.724 3.943-19.474C100 22.461 77.539 0 50 0z"/><path d="M19.654 11.231l.956-5.675.06-.119-1.494-.239-1.255 7.348 7.467.717.119-1.493-5.854-.538zm54.958 75.507l-.12 1.493 4.839.418c-8.363 6.332-18.698 9.797-29.271 9.797-26.762 0-48.566-21.804-48.566-48.566 0-6.571 1.254-12.903 3.823-18.877l.06-.119-1.374-.597-.06.179C1.314 36.619 0 43.19 0 49.94 0 77.539 22.461 100 50.06 100c10.872 0 21.446-3.584 30.108-10.096l-.777 4.54v.119l1.493.239 1.195-7.407-7.467-.657z"/></g></svg>
